public/images/svg-decorator-blob-4.svg

<?xml version="1.0" encoding="utf-8"?>
<!-- Generator: Adobe Illustrator 25.0.0, SVG Export Plug-In . SVG Version: 6.00 Build 0)  -->
<svg version="1.1" id="Layer_1" xmlns="http://www.w3.org/2000/svg" xmlns:xlink="http://www.w3.org/1999/xlink" x="0px" y="0px"
	 viewBox="0 0 600 600" style="enable-background:new 0 0 600 600;" xml:space="preserve">
<style type="text/css">
	.st0{fill:#4CDB95;}
</style>
<g transform="translate(300,300)">
	<path class="st0" d="M153.6-239c45.5,29.2,82.4,71.8,104.8,121c22.5,49.1,30.5,104.9,22.8,158.4c-7.7,53.5-31.1,104.8-66.5,145.7
		c-35.4,40.8-82.8,71.3-134.7,86.5c-51.8,15.2-108.2,15.2-160,0c-51.9-15.2-99.3-45.7-134.7-86.5c-35.4-40.9-58.8-92.2-66.5-145.7
		c-7.7-53.5,0.3-109.3,22.8-158.4c22.4-49.2,59.3-91.8,104.8-121c45.5-29.3,99.5-45.1,153.6-45.1S108.1-268.3,153.6-239z"/>
</g>
</svg>

<svg viewBox="0 0 600 600">
  <g transform="translate(300,300)">
    <path
      d="M153.6,-239C199.1,-209.8,236,-167.2,258.4,-118C280.9,-68.9,288.9,-13.1,281.2,40.4C273.5,93.9,250.1,145.2,214.7,186.1C179.3,226.9,131.9,257.4,80,272.6C28.2,287.8,-28.2,287.8,-80,272.6C-131.9,257.4,-179.3,226.9,-214.7,186.1C-250.1,145.2,-273.5,93.9,-281.2,40.4C-288.9,-13.1,-280.9,-68.9,-258.4,-118C-236,-167.2,-199.1,-209.8,-153.6,-239C-108.1,-268.3,-54.1,-284.1,0,-284.1C54.1,-284.1,108.1,-268.3,153.6,-239Z"
      fill="currentColor"/>
  </g>
</svg>
